32x32/apps/Nextcloud.svg

<svg xmlns="http://www.w3.org/2000/svg" width="32" height="32" version="1"><circle style="opacity:.2" cx="16" cy="17" r="14"/><circle style="fill:#008dda" cx="16" cy="16" r="14"/><path style="opacity:.2" d="M16 11a6 6 0 0 0-5.246 3.102A4 4 0 0 0 8 13a4 4 0 0 0-4 4 4 4 0 0 0 4 4 4 4 0 0 0 2.748-1.102A6 6 0 0 0 16 23a6 6 0 0 0 5.246-3.102A4 4 0 0 0 24 21a4 4 0 0 0 4-4 4 4 0 0 0-4-4 4 4 0 0 0-2.748 1.102A6 6 0 0 0 16 11zm0 2a4 4 0 0 1 4 4 4 4 0 0 1-4 4 4 4 0 0 1-4-4 4 4 0 0 1 4-4zm-8 2a2 2 0 0 1 2 2 2 2 0 0 1-2 2 2 2 0 0 1-2-2 2 2 0 0 1 2-2zm16 0a2 2 0 0 1 2 2 2 2 0 0 1-2 2 2 2 0 0 1-2-2 2 2 0 0 1 2-2z"/><path style="fill:#f4f4f7" d="M16 10a6 6 0 0 0-6 6 6 6 0 0 0 6 6 6 6 0 0 0 6-6 6 6 0 0 0-6-6zm0 2a4 4 0 0 1 4 4 4 4 0 0 1-4 4 4 4 0 0 1-4-4 4 4 0 0 1 4-4z"/><path style="fill:#f4f4f7" d="M8 12a4 4 0 0 0-4 4 4 4 0 0 0 4 4 4 4 0 0 0 4-4 4 4 0 0 0-4-4zm0 2a2 2 0 0 1 2 2 2 2 0 0 1-2 2 2 2 0 0 1-2-2 2 2 0 0 1 2-2zM24 12a4 4 0 0 0-4 4 4 4 0 0 0 4 4 4 4 0 0 0 4-4 4 4 0 0 0-4-4zm0 2a2 2 0 0 1 2 2 2 2 0 0 1-2 2 2 2 0 0 1-2-2 2 2 0 0 1 2-2z"/><path style="opacity:.2;fill:#f4f4f7" d="M16 2A14 14 0 0 0 2 16a14 14 0 0 0 .021.586A14 14 0 0 1 16 3a14 14 0 0 1 13.979 13.414A14 14 0 0 0 30 16 14 14 0 0 0 16 2z"/></svg>

<svg xmlns="http://www.w3.org/2000/svg" width="32" height="32" version="1">
 <circle style="opacity:0.2" cx="16" cy="17" r="14"/>
 <circle style="fill:#008dda" cx="16" cy="16" r="14"/>
 <path style="opacity:0.2" d="M 16,11 A 6,6 0 0 0 10.753906,14.101562 4,4 0 0 0 8,13 4,4 0 0 0 4,17 4,4 0 0 0 8,21 4,4 0 0 0 10.748047,19.898438 6,6 0 0 0 16,23 6,6 0 0 0 21.246094,19.898438 4,4 0 0 0 24,21 4,4 0 0 0 28,17 4,4 0 0 0 24,13 4,4 0 0 0 21.251953,14.101562 6,6 0 0 0 16,11 Z m 0,2 a 4,4 0 0 1 4,4 4,4 0 0 1 -4,4 4,4 0 0 1 -4,-4 4,4 0 0 1 4,-4 z m -8,2 a 2,2 0 0 1 2,2 2,2 0 0 1 -2,2 2,2 0 0 1 -2,-2 2,2 0 0 1 2,-2 z m 16,0 a 2,2 0 0 1 2,2 2,2 0 0 1 -2,2 2,2 0 0 1 -2,-2 2,2 0 0 1 2,-2 z"/>
 <path style="fill:#f4f4f7" d="M 16 10 A 6 6 0 0 0 10 16 A 6 6 0 0 0 16 22 A 6 6 0 0 0 22 16 A 6 6 0 0 0 16 10 z M 16 12 A 4 4 0 0 1 20 16 A 4 4 0 0 1 16 20 A 4 4 0 0 1 12 16 A 4 4 0 0 1 16 12 z"/>
 <path style="fill:#f4f4f7" d="M 8 12 A 4 4 0 0 0 4 16 A 4 4 0 0 0 8 20 A 4 4 0 0 0 12 16 A 4 4 0 0 0 8 12 z M 8 14 A 2 2 0 0 1 10 16 A 2 2 0 0 1 8 18 A 2 2 0 0 1 6 16 A 2 2 0 0 1 8 14 z"/>
 <path style="fill:#f4f4f7" d="m 24,12 a 4,4 0 0 0 -4,4 4,4 0 0 0 4,4 4,4 0 0 0 4,-4 4,4 0 0 0 -4,-4 z m 0,2 a 2,2 0 0 1 2,2 2,2 0 0 1 -2,2 2,2 0 0 1 -2,-2 2,2 0 0 1 2,-2 z"/>
 <path style="opacity:0.2;fill:#f4f4f7" d="M 16 2 A 14 14 0 0 0 2 16 A 14 14 0 0 0 2.0214844 16.585938 A 14 14 0 0 1 16 3 A 14 14 0 0 1 29.978516 16.414062 A 14 14 0 0 0 30 16 A 14 14 0 0 0 16 2 z"/>
</svg>
